; generated by Slic3r 0.9.9 on 2014-02-01 at 12:23:14

; layer_height = 0.4
; perimeters = 3
; top_solid_layers = 3
; bottom_solid_layers = 3
; fill_density = 0.4
; perimeter_speed = 30
; infill_speed = 60
; travel_speed = 130
; nozzle_diameter = 0.5
; filament_diameter = 3
; extrusion_multiplier = 1
; perimeters extrusion width = 0.53mm
; infill extrusion width = 0.53mm
; solid infill extrusion width = 0.53mm
; top infill extrusion width = 0.53mm
; first layer extrusion width = 0.70mm

G21 ; set units to millimeters
M107
M104 S200 ; set temperature
G28 ; home all axes
G1 Z5 F5000 ; lift nozzle

M109 S200 ; wait for temperature to be reached
G90 ; use absolute coordinates
G92 E0
M82 ; use absolute distances for extrusion
G1 F1800.000 E-1.00000
G92 E0
G1 Z0.350 F7800.000
G1 X73.930 Y69.170
G1 F1800.000 E1.00000
G1 X74.310 Y68.770 F540.000 E1.01795
G1 X76.010 Y67.090 E1.09571
G1 X76.210 Y66.910 E1.10447
G1 X76.650 Y66.570 E1.12256
G1 X77.110 Y66.270 E1.14043
G1 X77.590 Y66.010 E1.15819
G1 X78.090 Y65.790 E1.17596
G1 X78.870 Y65.540 E1.20261
G1 X79.680 Y65.390 E1.22941
G1 X80.500 Y65.340 E1.25614
G1 X119.500 Y65.340 E2.52501
G1 X120.320 Y65.390 E2.55174
G1 X121.130 Y65.540 E2.57854
G1 X121.910 Y65.790 E2.60519
G1 X122.410 Y66.010 E2.62296
G1 X123.130 Y66.420 E2.64992
G1 X123.790 Y66.910 E2.67666
G1 X123.990 Y67.090 E2.68542
G1 X125.690 Y68.770 E2.76318
G1 X126.070 Y69.170 E2.78113
G1 X126.410 Y69.610 E2.79922
G1 X126.710 Y70.070 E2.81709
G1 X126.970 Y70.550 E2.83485
G1 X127.200 Y71.060 E2.85305
G1 X127.380 Y71.580 E2.87096
G1 X127.570 Y72.390 E2.89802
G1 X127.610 Y72.660 E2.90690
G1 X127.660 Y73.490 E2.93396
G1 X127.660 Y127.990 E4.70713
G1 X127.640 Y128.530 E4.72471
G1 X127.520 Y129.320 E4.75071
G1 X127.310 Y130.100 E4.77699
G1 X127.010 Y130.840 E4.80297
G1 X126.770 Y131.320 E4.82043
G1 X126.630 Y131.550 E4.82919
G1 X126.160 Y132.200 E4.85528
G1 X125.800 Y132.600 E4.87279
G1 X125.210 Y133.150 E4.89904
G1 X124.780 Y133.470 E4.91647
G1 X124.330 Y133.760 E4.93389
G1 X123.610 Y134.110 E4.95994
G1 X123.110 Y134.300 E4.97734
G1 X122.590 Y134.450 E4.99495
G1 X122.070 Y134.560 E5.01224
G1 X121.540 Y134.630 E5.02964
G1 X121.000 Y134.650 E5.04722
G1 X79.000 Y134.650 E6.41370
G1 X78.460 Y134.630 E6.43128
G1 X77.670 Y134.510 E6.45727
G1 X76.890 Y134.300 E6.48356
G1 X76.150 Y134.000 E6.50953
G1 X75.670 Y133.760 E6.52700
G1 X75.440 Y133.620 E6.53576
G1 X74.790 Y133.150 E6.56185
G1 X74.390 Y132.790 E6.57936
G1 X73.840 Y132.200 E6.60560
G1 X73.520 Y131.770 E6.62304
G1 X73.230 Y131.320 E6.64046
G1 X72.880 Y130.600 E6.66651
G1 X72.690 Y130.100 E6.68391
G1 X72.540 Y129.580 E6.70152
G1 X72.430 Y129.060 E6.71881
G1 X72.360 Y128.530 E6.73620
G1 X72.340 Y127.990 E6.75379
G1 X72.340 Y73.490 E8.52695
G1 X72.390 Y72.660 E8.55401
G1 X72.430 Y72.390 E8.56289
G1 X72.620 Y71.580 E8.58996
G1 X72.800 Y71.060 E8.60786
G1 X73.030 Y70.550 E8.62606
G1 X73.290 Y70.070 E8.64382
G1 X73.590 Y69.610 E8.66169
G1 X73.870 Y69.248 E8.67658
G1 F1800.000 E7.67658
G92 E0
G1 X107.097 Y100.886 F7800.000
G1 F1800.000 E1.00000
G1 X108.800 Y99.457 F540.000 E1.07233
G1 X110.889 Y98.696 E1.14465
G1 X113.111 Y98.696 E1.21698
G1 X115.200 Y99.457 E1.28930
G1 X116.903 Y100.886 E1.36163
G1 X118.015 Y102.811 E1.43395
G1 X118.401 Y105.000 E1.50628
G1 X118.015 Y107.189 E1.57860
G1 X116.903 Y109.114 E1.65093
G1 X115.200 Y110.543 E1.72325
G1 X113.111 Y111.304 E1.79558
G1 X110.889 Y111.304 E1.86790
G1 X108.800 Y110.543 E1.94023
G1 X107.097 Y109.114 E2.01255
G1 X105.985 Y107.189 E2.08488
G1 X105.599 Y105.000 E2.15720
G1 X105.985 Y102.811 E2.22953
G1 X107.047 Y100.971 E2.29865
G1 X107.608 Y101.315 F7800.000
G1 X109.133 Y100.035 F540.000 E2.36343
G1 X111.004 Y99.353 E2.42822
G1 X112.996 Y99.353 E2.49301
G1 X114.867 Y100.035 E2.55779
G1 X116.392 Y101.315 E2.62258
G1 X117.388 Y103.039 E2.68736
G1 X117.734 Y105.000 E2.75215
G1 X117.388 Y106.961 E2.81694
G1 X116.392 Y108.685 E2.88172
G1 X114.867 Y109.965 E2.94651
G1 X112.996 Y110.646 E3.01129
G1 X111.004 Y110.646 E3.07608
G1 X109.133 Y109.965 E3.14087
G1 X107.608 Y108.685 E3.20565
G1 X106.612 Y106.961 E3.27044
G1 X106.266 Y105.000 E3.33522
G1 X106.612 Y103.039 E3.40001
G1 X107.559 Y101.400 E3.46159
G1 X107.419 Y100.685 F7800.000
G1 X105.138 Y106.168
G1 X105.358 Y107.417 F540.000 E3.50286
G1 X106.586 Y109.543 E3.58272
G1 X108.466 Y111.121 E3.66259
G1 X110.773 Y111.961 E3.74245
G1 X113.227 Y111.961 E3.82232
G1 X115.534 Y111.121 E3.90218
G1 X117.414 Y109.543 E3.98204
G1 X118.642 Y107.417 E4.06191
G1 X118.862 Y106.168 E4.10318
G1 X119.357 Y106.212 E4.11935
G1 X119.357 Y126.357 E4.77480
G1 X104.643 Y126.357 E5.25354
G1 X104.643 Y106.212 E5.90899
G1 X105.040 Y106.177 E5.92195
G1 X105.138 Y103.832 F7800.000
G1 X104.643 Y103.788 F540.000 E5.93813
G1 X104.643 Y74.180 E6.90143
G1 X105.180 Y73.643 E6.92617
G1 X106.189 Y73.643 E6.95899
G1 X106.137 Y74.060 E6.97268
G1 X106.572 Y76.248 E7.04526
G1 X107.846 Y78.154 E7.11984
G1 X109.752 Y79.428 E7.19442
G1 X112.000 Y79.875 E7.26900
G1 X114.248 Y79.428 E7.34358
G1 X116.154 Y78.154 E7.41816
G1 X117.428 Y76.248 E7.49274
G1 X117.863 Y74.060 E7.56532
G1 X117.811 Y73.643 E7.57901
G1 X118.820 Y73.643 E7.61183
G1 X119.357 Y74.180 E7.63657
G1 X119.357 Y103.788 E8.59987
G1 X118.862 Y103.832 E8.61605
G1 X118.642 Y102.583 E8.65731
G1 X117.414 Y100.457 E8.73718
G1 X115.534 Y98.879 E8.81704
G1 X113.227 Y98.039 E8.89691
G1 X110.773 Y98.039 E8.97677
G1 X108.466 Y98.879 E9.05664
G1 X106.586 Y100.457 E9.13650
G1 X105.358 Y102.583 E9.21636
G1 X105.155 Y103.735 E9.25443
G1 X103.986 Y127.014 F7800.000
G1 X103.986 Y73.908 F540.000 E10.98224
G1 X104.908 Y72.986 E11.02470
G1 X106.933 Y72.986 E11.09058
G1 X106.802 Y74.036 E11.12502
G1 X107.191 Y75.992 E11.18990
G1 X108.320 Y77.680 E11.25597
G1 X110.008 Y78.809 E11.32205
G1 X112.000 Y79.205 E11.38812
G1 X113.992 Y78.809 E11.45420
G1 X115.680 Y77.680 E11.52027
G1 X116.809 Y75.992 E11.58635
G1 X117.198 Y74.036 E11.65123
G1 X117.067 Y72.986 E11.68567
G1 X119.092 Y72.986 E11.75155
G1 X120.014 Y73.908 E11.79400
G1 X120.014 Y127.014 E13.52182
G1 X104.084 Y127.014 E14.04011
G1 X103.329 Y126.938 F7800.000
G1 X103.329 Y73.636 F378.000 E15.77429
G1 X104.636 Y72.329 E15.83445
G1 X107.826 Y72.329 E15.93823
G1 X107.608 Y72.887 E15.95774
G1 X107.467 Y74.012 E15.99462
G1 X107.810 Y75.735 E16.05179
G1 X108.793 Y77.207 E16.10936
G1 X110.265 Y78.190 E16.16693
G1 X112.000 Y78.535 E16.22450
G1 X113.735 Y78.190 E16.28207
G1 X115.207 Y77.207 E16.33964
G1 X116.190 Y75.735 E16.39721
G1 X116.533 Y74.012 E16.45438
G1 X116.392 Y72.887 E16.49126
G1 X116.174 Y72.329 E16.51077
G1 X119.364 Y72.329 E16.61455
G1 X120.671 Y73.636 E16.67471
G1 X120.671 Y127.671 E18.43276
G1 X103.329 Y127.671 E18.99702
G1 X103.329 Y127.036 E19.01769
G1 X103.898 Y126.609 F7800.000
G1 X105.119 Y125.881
G1 X105.119 Y124.936 F1080.000 E19.04897
G1 X106.064 Y125.881 E19.09320
G1 X107.009 Y125.881 E19.12446
G1 X105.119 Y123.991 E19.21291
G1 X105.119 Y123.046 E19.24418
G1 X107.954 Y125.881 E19.37685
G1 X108.899 Y125.881 E19.40812
G1 X105.119 Y122.101 E19.58500
G1 X105.119 Y121.156 E19.61627
G1 X109.844 Y125.881 E19.83738
G1 X110.789 Y125.881 E19.86865
G1 X105.119 Y120.211 E20.13397
G1 X105.119 Y119.266 E20.16524
G1 X111.734 Y125.881 E20.47479
G1 X112.679 Y125.881 E20.50605
G1 X105.119 Y118.321 E20.85982
G1 X105.119 Y117.376 E20.89109
G1 X113.624 Y125.881 E21.28907
G1 X114.569 Y125.881 E21.32034
G1 X105.119 Y116.431 E21.76254
G1 X105.119 Y115.486 E21.79381
G1 X115.514 Y125.881 E22.28023
G1 X116.459 Y125.881 E22.31150
G1 X105.119 Y114.541 E22.84215
G1 X105.119 Y113.596 E22.87341
G1 X117.404 Y125.881 E23.44828
G1 X118.349 Y125.881 E23.47954
G1 X105.119 Y112.651 E24.09863
G1 X105.119 Y111.706 E24.12989
G1 X118.881 Y125.468 E24.77385
G1 X118.881 Y124.523 E24.80512
G1 X105.119 Y110.761 E25.44908
G1 X105.119 Y109.816 E25.48035
G1 X118.881 Y123.578 E26.12431
G1 X118.881 Y122.633 E26.15558
G1 X105.119 Y108.871 E26.79954
G1 X109.025 Y111.831 F7800.000
G1 X118.881 Y121.688 F1080.000 E27.26074
G1 X118.881 Y120.743 E27.29201
G1 X110.511 Y112.372 E27.68368
G1 X111.520 Y112.437 E27.71716
G1 X118.881 Y119.798 E28.06159
G1 X118.881 Y118.853 E28.09285
G1 X112.465 Y112.437 E28.39306
G1 X113.384 Y112.410 E28.42346
G1 X118.881 Y117.908 E28.68068
G1 X118.881 Y116.963 E28.71195
G1 X114.077 Y112.158 E28.93675
G1 X114.770 Y111.906 E28.96115
G1 X118.881 Y116.018 E29.15353
G1 X118.881 Y115.072 E29.18480
G1 X115.462 Y111.654 E29.34476
G1 X116.057 Y111.304 E29.36760
G1 X118.881 Y114.127 E29.49973
G1 X118.881 Y113.182 E29.53099
G1 X116.571 Y110.873 E29.63908
G1 X117.085 Y110.441 E29.66127
G1 X118.881 Y112.237 E29.74532
G1 X118.881 Y111.292 E29.77658
G1 X117.599 Y110.010 E29.83658
G1 X118.006 Y109.472 E29.85890
G1 X118.881 Y110.347 E29.89987
G1 X118.881 Y109.402 E29.93114
G1 X118.351 Y108.873 E29.95592
G1 X118.881 Y108.457 E29.97819
G1 F1800.000 E28.97819
G92 E0
G1 X105.111 Y108.666 F7800.000
G1 F1800.000 E1.00000
G1 X105.111 Y107.927 F360.000 E1.01912
G1 X104.664 Y105.529 F7800.000
G1 X104.998 Y104.501 F360.000 E1.07067
G1 X105.111 Y102.073 F7800.000
G1 X105.296 Y101.753 F360.000 E1.07720
G1 X105.111 Y101.568 E1.08182
G1 X105.481 Y101.433 E1.08877
G1 X105.119 Y101.543 F7800.000
G1 X105.647 Y101.131 F1080.000 E1.11079
G1 X105.119 Y100.603 E1.13534
G1 X105.990 Y100.535 E1.16410
G1 X105.119 Y99.663 E1.20465
G1 X105.119 Y98.724 E1.23556
G1 X106.392 Y99.997 E1.29480
G1 X106.903 Y99.568 E1.31674
G1 X105.119 Y97.784 E1.39975
G1 X105.119 Y96.845 E1.43066
G1 X107.414 Y99.140 E1.53745
G1 X107.925 Y98.711 E1.55939
G1 X105.119 Y95.905 E1.68994
G1 X105.119 Y94.965 E1.72085
G1 X108.510 Y98.356 E1.87860
G1 X109.199 Y98.105 E1.90272
G1 X105.119 Y94.026 E2.09252
G1 X105.119 Y93.086 E2.12343
G1 X109.887 Y97.855 E2.34528
G1 X110.576 Y97.604 E2.36939
G1 X105.119 Y92.147 E2.62329
G1 X105.119 Y91.207 E2.65420
G1 X111.475 Y97.563 E2.94992
G1 X112.415 Y97.563 E2.98083
G1 X105.119 Y90.267 E3.32025
G1 X105.119 Y89.328 E3.35116
G1 X113.379 Y97.588 E3.73544
G1 X114.856 Y98.125 E3.78716
G1 X105.119 Y88.388 E4.24017
G1 X105.119 Y87.449 E4.27108
G1 X118.881 Y101.211 E4.91135
G1 X118.881 Y100.271 E4.94226
G1 X105.119 Y86.509 E5.58253
G1 X105.119 Y85.569 E5.61344
G1 X118.881 Y99.331 E6.25371
G1 X118.881 Y98.392 E6.28462
G1 X105.119 Y84.630 E6.92488
G1 X105.119 Y83.690 E6.95579
G1 X118.881 Y97.452 E7.59606
G1 X118.881 Y96.513 E7.62697
G1 X105.119 Y82.751 E8.26724
G1 X105.119 Y81.811 E8.29815
G1 X118.881 Y95.573 E8.93842
G1 X118.881 Y94.633 E8.96933
G1 X105.119 Y80.871 E9.60960
G1 X105.119 Y79.932 E9.64051
G1 X118.881 Y93.694 E10.28077
G1 X118.881 Y92.754 E10.31169
G1 X105.119 Y78.992 E10.95195
G1 X105.119 Y78.053 E10.98286
G1 X118.881 Y91.815 E11.62313
G1 X118.881 Y90.875 E11.65404
G1 X105.119 Y77.113 E12.29431
G1 X105.119 Y76.173 E12.32522
G1 X118.881 Y89.935 E12.96549
G1 X118.881 Y88.996 E12.99640
G1 X109.810 Y79.925 E13.41842
G1 X110.983 Y80.158 E13.45776
G1 X118.881 Y88.056 E13.82522
G1 X118.881 Y87.117 E13.85613
G1 X112.104 Y80.340 E14.17142
G1 X112.888 Y80.184 E14.19770
G1 X118.881 Y86.177 E14.47653
G1 X118.881 Y85.238 E14.50744
G1 X113.672 Y80.028 E14.74981
G1 X114.449 Y79.866 E14.77595
G1 X118.881 Y84.298 E14.98213
G1 X118.881 Y83.358 E15.01304
G1 X115.013 Y79.490 E15.19302
G1 X115.576 Y79.113 E15.21531
G1 X118.881 Y82.419 E15.36908
G1 X118.881 Y81.479 E15.39999
G1 X116.139 Y78.737 E15.52756
G1 X116.634 Y78.293 E15.54945
G1 X118.881 Y80.540 E15.65398
G1 X118.881 Y79.600 E15.68489
G1 X117.011 Y77.730 E15.77190
G1 X117.387 Y77.166 E15.79419
G1 X118.881 Y78.660 E15.86370
G1 X118.881 Y77.721 E15.89461
G1 X117.763 Y76.603 E15.94661
G1 X117.985 Y75.886 E15.97132
G1 X118.881 Y76.781 E16.01298
G1 X118.881 Y75.842 E16.04389
G1 X118.141 Y75.102 E16.07831
G1 X118.881 Y74.902 E16.10352
G1 F1800.000 E15.10352
G92 E0
G1 X106.075 Y76.190 F7800.000
G1 F1800.000 E1.00000
G1 X105.119 Y75.234 F1080.000 E1.04449
G1 X105.672 Y74.847 E1.06668
G1 X105.842 Y75.017 E1.07458
G1 X118.889 Y102.073 F7800.000
G1 X118.889 Y101.334 F360.000 E1.09370
G1 X119.002 Y105.499 F7800.000
G1 X119.336 Y104.471 F360.000 E1.14525
G1 X118.519 Y108.567 F7800.000
G1 X118.704 Y108.247 F360.000 E1.15178
G1 X118.889 Y108.431 E1.15640
G1 X118.889 Y107.927 E1.16532
G1 X118.378 Y74.948 F7800.000
G1 X118.378 Y74.948 F360.000 E1.16533
G1 F1800.000 E0.16533
G92 E0
G1 X105.321 Y74.977 F7800.000
G1 F1800.000 E1.00000
G1 X105.321 Y74.977 F360.000 E1.00001
G1 F1800.000 E0.00001
G92 E0
G1 X91.200 Y99.457 F7800.000
G1 F1800.000 E1.00000
G1 X92.903 Y100.886 F540.000 E1.07233
G1 X94.015 Y102.811 E1.14465
G1 X94.401 Y105.000 E1.21698
G1 X94.015 Y107.189 E1.28930
G1 X92.903 Y109.114 E1.36163
G1 X91.200 Y110.543 E1.43395
G1 X89.111 Y111.304 E1.50628
G1 X86.889 Y111.304 E1.57860
G1 X84.800 Y110.543 E1.65093
G1 X83.097 Y109.114 E1.72325
G1 X81.985 Y107.189 E1.79558
G1 X81.599 Y105.000 E1.86790
G1 X81.985 Y102.811 E1.94023
G1 X83.097 Y100.886 E2.01255
G1 X84.800 Y99.457 E2.08488
G1 X86.889 Y98.696 E2.15720
G1 X89.111 Y98.696 E2.22953
G1 X91.108 Y99.423 E2.29865
G1 X90.867 Y100.035 F7800.000
G1 X92.392 Y101.315 F540.000 E2.36343
G1 X93.388 Y103.039 E2.42822
G1 X93.734 Y105.000 E2.49301
G1 X93.388 Y106.961 E2.55779
G1 X92.392 Y108.685 E2.62258
G1 X90.867 Y109.965 E2.68736
G1 X88.996 Y110.646 E2.75215
G1 X87.004 Y110.646 E2.81694
G1 X85.133 Y109.965 E2.88172
G1 X83.608 Y108.685 E2.94651
G1 X82.612 Y106.961 E3.01129
G1 X82.266 Y105.000 E3.07608
G1 X82.612 Y103.039 E3.14087
G1 X83.608 Y101.315 E3.20565
G1 X85.133 Y100.035 E3.27044
G1 X87.004 Y99.353 E3.33523
G1 X88.996 Y99.353 E3.40001
G1 X90.774 Y100.001 E3.46159
G1 X91.454 Y99.740 F7800.000
G1 X94.862 Y106.168
G1 X95.357 Y106.212 F540.000 E3.47777
G1 X95.357 Y126.357 E4.13321
G1 X80.643 Y126.357 E4.61195
G1 X80.643 Y106.212 E5.26740
G1 X81.138 Y106.168 E5.28357
G1 X81.358 Y107.417 E5.32484
G1 X82.586 Y109.543 E5.40471
G1 X84.466 Y111.121 E5.48457
G1 X86.773 Y111.961 E5.56443
G1 X89.227 Y111.961 E5.64430
G1 X91.534 Y111.121 E5.72416
G1 X93.414 Y109.543 E5.80403
G1 X94.642 Y107.417 E5.88389
G1 X94.845 Y106.265 E5.92195
G1 X94.862 Y103.832 F7800.000
G1 X94.642 Y102.583 F540.000 E5.96322
G1 X93.414 Y100.457 E6.04309
G1 X91.534 Y98.879 E6.12295
G1 X89.227 Y98.039 E6.20282
G1 X86.773 Y98.039 E6.28268
G1 X84.466 Y98.879 E6.36254
G1 X82.586 Y100.457 E6.44241
G1 X81.358 Y102.583 E6.52227
G1 X81.138 Y103.832 E6.56354
G1 X80.643 Y103.788 E6.57972
G1 X80.643 Y74.180 E7.54302
G1 X81.180 Y73.643 E7.56776
G1 X82.189 Y73.643 E7.60058
G1 X82.137 Y74.060 E7.61426
G1 X82.572 Y76.248 E7.68685
G1 X83.846 Y78.154 E7.76143
G1 X85.752 Y79.428 E7.83601
G1 X88.000 Y79.875 E7.91059
G1 X90.248 Y79.428 E7.98517
G1 X92.154 Y78.154 E8.05974
G1 X93.428 Y76.248 E8.13432
G1 X93.863 Y74.060 E8.20691
G1 X93.811 Y73.643 E8.22059
G1 X94.820 Y73.643 E8.25341
G1 X95.357 Y74.180 E8.27816
G1 X95.357 Y103.788 E9.24146
G1 X94.960 Y103.823 E9.25443
G1 X96.014 Y127.014 F7800.000
G1 X79.986 Y127.014 F540.000 E9.77592
G1 X79.986 Y73.908 E11.50374
G1 X80.908 Y72.986 E11.54620
G1 X82.933 Y72.986 E11.61208
G1 X82.802 Y74.036 E11.64652
G1 X83.191 Y75.992 E11.71140
G1 X84.320 Y77.680 E11.77747
G1 X86.008 Y78.809 E11.84355
G1 X88.000 Y79.205 E11.90962
G1 X89.992 Y78.809 E11.97570
G1 X91.680 Y77.680 E12.04177
G1 X92.809 Y75.992 E12.10785
G1 X93.198 Y74.036 E12.17272
G1 X93.067 Y72.986 E12.20717
G1 X95.092 Y72.986 E12.27305
G1 X96.014 Y73.908 E12.31550
G1 X96.014 Y126.916 E14.04011
G1 X96.671 Y126.937 F7800.000
G1 X96.671 Y127.671 F378.000 E14.06399
G1 X79.329 Y127.671 E14.62825
G1 X79.329 Y73.636 E16.38630
G1 X80.636 Y72.329 E16.44646
G1 X83.826 Y72.329 E16.55024
G1 X83.608 Y72.887 E16.56975
G1 X83.467 Y74.012 E16.60663
G1 X83.810 Y75.735 E16.66380
G1 X84.793 Y77.207 E16.72137
G1 X86.265 Y78.190 E16.77894
G1 X88.000 Y78.535 E16.83651
G1 X89.735 Y78.190 E16.89408
G1 X91.207 Y77.207 E16.95165
G1 X92.190 Y75.735 E17.00922
G1 X92.533 Y74.012 E17.06639
G1 X92.392 Y72.887 E17.10328
G1 X92.174 Y72.329 E17.12279
G1 X95.364 Y72.329 E17.22656
G1 X96.671 Y73.636 E17.28673
G1 X96.671 Y126.839 E19.01769
G1 X96.102 Y127.266 F7800.000
G1 X81.119 Y125.881
G1 X81.119 Y124.936 F1080.000 E19.04897
G1 X82.064 Y125.881 E19.09320
G1 X83.009 Y125.881 E19.12446
