; generated by Slic3r 0.9.9 on 2014-01-30 at 16:57:59

; layer_height = 0.4
; perimeters = 3
; top_solid_layers = 3
; bottom_solid_layers = 3
; fill_density = 0.4
; perimeter_speed = 30
; infill_speed = 60
; travel_speed = 130
; nozzle_diameter = 0.5
; filament_diameter = 3
; extrusion_multiplier = 1
; perimeters extrusion width = 0.53mm
; infill extrusion width = 0.53mm
; solid infill extrusion width = 0.53mm
; top infill extrusion width = 0.53mm
; first layer extrusion width = 0.70mm

G21 ; set units to millimeters
M190 S90 ; wait for bed temperature to be reached
M104 S225 ; set temperature
G28 ; home all axes
M109 S225 ; wait for temperature to be reached
G90 ; use absolute coordinates
G92 E0
M82 ; use absolute distances for extrusion
M106 S89
G1 F1800.000 E-1.00000
G92 E0
G1 Z0.350 F7800.000
G1 X80.930 Y64.170
G1 F1800.000 E1.00000
G1 X81.310 Y63.770 F540.000 E1.01795
G1 X82.810 Y62.280 E1.08674
G1 X83.210 Y61.910 E1.10447
G1 X83.650 Y61.570 E1.12256
G1 X84.340 Y61.140 E1.14901
G1 X85.090 Y60.790 E1.17594
G1 X85.870 Y60.540 E1.20259
G1 X86.410 Y60.430 E1.22052
G1 X86.680 Y60.390 E1.22940
G1 X87.500 Y60.340 E1.25612
G1 X102.770 Y60.350 E1.75294
G1 X103.320 Y60.390 E1.77088
G1 X103.860 Y60.480 E1.78869
G1 X104.130 Y60.540 E1.79769
G1 X104.650 Y60.700 E1.81539
G1 X104.910 Y60.790 E1.82434
G1 X105.410 Y61.010 E1.84211
G1 X105.890 Y61.270 E1.85988
G1 X106.350 Y61.570 E1.87774
G1 X106.790 Y61.910 E1.89583
G1 X107.190 Y62.280 E1.91356
G1 X108.690 Y63.770 E1.98235
G1 X109.070 Y64.170 E2.00030
G1 X109.410 Y64.610 E2.01839
G1 X109.710 Y65.070 E2.03626
G1 X109.970 Y65.550 E2.05402
G1 X110.200 Y66.060 E2.07222
G1 X110.380 Y66.580 E2.09013
G1 X110.570 Y67.390 E2.11720
G1 X110.610 Y67.660 E2.12608
G1 X110.660 Y68.490 E2.15313
G1 X110.660 Y122.990 E3.92630
G1 X110.640 Y123.530 E3.94388
G1 X110.520 Y124.320 E3.96988
G1 X110.390 Y124.840 E3.98732
G1 X110.220 Y125.350 E4.00481
G1 X110.010 Y125.840 E4.02215
G1 X109.770 Y126.320 E4.03961
G1 X109.320 Y126.990 E4.06587
G1 X109.160 Y127.200 E4.07446
G1 X108.800 Y127.600 E4.09197
G1 X108.210 Y128.150 E4.11821
G1 X108.000 Y128.310 E4.12680
G1 X107.330 Y128.760 E4.15306
G1 X106.850 Y129.000 E4.17052
G1 X106.360 Y129.210 E4.18786
G1 X105.850 Y129.380 E4.20536
G1 X105.070 Y129.560 E4.23140
G1 X104.540 Y129.630 E4.24879
G1 X104.000 Y129.650 E4.26637
G1 X86.000 Y129.650 E4.85201
G1 X85.460 Y129.630 E4.86959
G1 X85.200 Y129.600 E4.87810
G1 X84.670 Y129.510 E4.89559
G1 X84.150 Y129.380 E4.91303
G1 X83.390 Y129.110 E4.93927
G1 X82.670 Y128.760 E4.96532
G1 X82.220 Y128.470 E4.98274
G1 X81.790 Y128.150 E5.00018
G1 X81.200 Y127.600 E5.02642
G1 X80.840 Y127.200 E5.04393
G1 X80.520 Y126.770 E5.06137
G1 X80.230 Y126.320 E5.07879
G1 X79.990 Y125.840 E5.09625
G1 X79.780 Y125.350 E5.11359
G1 X79.610 Y124.840 E5.13108
G1 X79.430 Y124.060 E5.15713
G1 X79.360 Y123.530 E5.17452
G1 X79.340 Y122.990 E5.19210
G1 X79.340 Y68.490 E6.96527
G1 X79.390 Y67.660 E6.99232
G1 X79.430 Y67.390 E7.00120
G1 X79.620 Y66.580 E7.02827
G1 X79.800 Y66.060 E7.04618
G1 X80.030 Y65.550 E7.06438
G1 X80.290 Y65.070 E7.08214
G1 X80.590 Y64.610 E7.10001
G1 X80.870 Y64.248 E7.11489
G1 F1800.000 E6.11489
G92 E0
G1 X91.800 Y94.457 F7800.000
G1 F1800.000 E1.00000
G1 X93.889 Y93.696 F540.000 E1.07233
G1 X96.111 Y93.696 E1.14465
G1 X98.200 Y94.457 E1.21698
G1 X99.903 Y95.886 E1.28930
G1 X101.015 Y97.811 E1.36163
G1 X101.401 Y100.000 E1.43395
G1 X101.015 Y102.189 E1.50628
G1 X99.903 Y104.114 E1.57860
G1 X98.200 Y105.543 E1.65093
G1 X96.111 Y106.304 E1.72325
G1 X93.889 Y106.304 E1.79558
G1 X91.800 Y105.543 E1.86790
G1 X90.097 Y104.114 E1.94023
G1 X88.985 Y102.189 E2.01255
G1 X88.599 Y100.000 E2.08488
G1 X88.985 Y97.811 E2.15720
G1 X90.097 Y95.886 E2.22953
G1 X91.724 Y94.520 E2.29865
G1 X92.133 Y95.035 F7800.000
G1 X94.004 Y94.353 F540.000 E2.36343
G1 X95.996 Y94.353 E2.42822
G1 X97.867 Y95.035 E2.49301
G1 X99.392 Y96.315 E2.55779
G1 X100.388 Y98.039 E2.62258
G1 X100.734 Y100.000 E2.68736
G1 X100.388 Y101.961 E2.75215
G1 X99.392 Y103.685 E2.81694
G1 X97.867 Y104.965 E2.88172
G1 X95.996 Y105.646 E2.94651
G1 X94.004 Y105.646 E3.01129
G1 X92.133 Y104.965 E3.07608
G1 X90.608 Y103.685 E3.14087
G1 X89.612 Y101.961 E3.20565
G1 X89.266 Y100.000 E3.27044
G1 X89.612 Y98.039 E3.33523
G1 X90.608 Y96.315 E3.40001
G1 X92.058 Y95.098 E3.46159
G1 X92.171 Y94.379 F7800.000
G1 X87.643 Y101.212
G1 X88.138 Y101.168 F540.000 E3.47777
G1 X88.358 Y102.417 E3.51903
G1 X89.586 Y104.543 E3.59890
G1 X91.466 Y106.121 E3.67876
G1 X93.773 Y106.961 E3.75863
G1 X96.227 Y106.961 E3.83849
G1 X98.534 Y106.121 E3.91835
G1 X100.414 Y104.543 E3.99822
G1 X101.642 Y102.417 E4.07808
G1 X101.862 Y101.168 E4.11935
G1 X102.357 Y101.212 E4.13553
G1 X102.357 Y121.357 E4.79097
G1 X87.643 Y121.357 E5.26972
G1 X87.643 Y101.310 E5.92195
G1 X87.643 Y69.180 F7800.000
G1 X88.180 Y68.643 F540.000 E5.94670
G1 X89.189 Y68.643 E5.97951
G1 X89.137 Y69.060 E5.99320
G1 X89.572 Y71.248 E6.06578
G1 X90.846 Y73.154 E6.14036
G1 X92.752 Y74.428 E6.21494
G1 X95.000 Y74.875 E6.28952
G1 X97.248 Y74.428 E6.36410
G1 X99.154 Y73.154 E6.43868
G1 X100.428 Y71.248 E6.51326
G1 X100.863 Y69.060 E6.58585
G1 X100.811 Y68.643 E6.59953
G1 X101.820 Y68.643 E6.63235
G1 X102.357 Y69.180 E6.65709
G1 X102.357 Y98.788 E7.62039
G1 X101.862 Y98.832 E7.63657
G1 X101.642 Y97.583 E7.67784
G1 X100.414 Y95.457 E7.75770
G1 X98.534 Y93.879 E7.83757
G1 X96.227 Y93.039 E7.91743
G1 X93.773 Y93.039 E7.99730
G1 X91.466 Y93.879 E8.07716
G1 X89.586 Y95.457 E8.15702
G1 X88.358 Y97.583 E8.23689
G1 X88.138 Y98.832 E8.27816
G1 X87.643 Y98.788 E8.29433
G1 X87.643 Y69.279 E9.25443
G1 X86.986 Y69.141 F7800.000
G1 X86.986 Y68.908 F540.000 E9.26199
G1 X87.908 Y67.986 E9.30444
G1 X89.933 Y67.986 E9.37032
G1 X89.802 Y69.036 E9.40476
G1 X90.191 Y70.992 E9.46964
G1 X91.320 Y72.680 E9.53572
G1 X93.008 Y73.809 E9.60179
G1 X95.000 Y74.205 E9.66786
G1 X96.992 Y73.809 E9.73394
G1 X98.680 Y72.680 E9.80001
G1 X99.809 Y70.992 E9.86609
G1 X100.198 Y69.036 E9.93097
G1 X100.067 Y67.986 E9.96541
G1 X102.092 Y67.986 E10.03129
G1 X103.014 Y68.908 E10.07374
G1 X103.014 Y122.014 E11.80156
G1 X86.986 Y122.014 E12.32306
G1 X86.986 Y69.239 E14.04011
G1 X86.329 Y69.141 F7800.000
G1 X86.329 Y68.636 F378.000 E14.05653
G1 X87.636 Y67.329 E14.11669
G1 X90.826 Y67.329 E14.22047
G1 X90.608 Y67.887 E14.23998
G1 X90.467 Y69.012 E14.27686
G1 X90.810 Y70.735 E14.33403
G1 X91.793 Y72.207 E14.39160
G1 X93.265 Y73.190 E14.44917
G1 X95.000 Y73.535 E14.50674
G1 X96.735 Y73.190 E14.56431
G1 X98.207 Y72.207 E14.62188
G1 X99.190 Y70.735 E14.67945
G1 X99.533 Y69.012 E14.73662
G1 X99.392 Y67.887 E14.77351
G1 X99.174 Y67.329 E14.79301
G1 X102.364 Y67.329 E14.89679
G1 X103.671 Y68.636 E14.95695
G1 X103.671 Y122.671 E16.71501
G1 X86.329 Y122.671 E17.27926
G1 X86.329 Y69.239 E19.01769
G1 X86.765 Y68.888 F7800.000
G1 X88.119 Y103.871
G1 X101.881 Y117.633 F1080.000 E19.66165
G1 X101.881 Y118.578 E19.69292
G1 X88.119 Y104.816 E20.33688
G1 X88.119 Y105.761 E20.36815
G1 X101.881 Y119.523 E21.01211
G1 X101.881 Y120.468 E21.04338
G1 X88.119 Y106.706 E21.68733
G1 X88.119 Y107.651 E21.71860
G1 X101.349 Y120.881 E22.33768
G1 X100.404 Y120.881 E22.36895
G1 X88.119 Y108.596 E22.94382
G1 X88.119 Y109.541 E22.97508
G1 X99.459 Y120.881 E23.50573
G1 X98.514 Y120.881 E23.53699
G1 X88.119 Y110.486 E24.02342
G1 X88.119 Y111.431 E24.05469
G1 X97.569 Y120.881 E24.49689
G1 X96.624 Y120.881 E24.52816
G1 X88.119 Y112.376 E24.92614
G1 X88.119 Y113.321 E24.95741
G1 X95.679 Y120.881 E25.31118
G1 X94.734 Y120.881 E25.34244
G1 X88.119 Y114.266 E25.65199
G1 X88.119 Y115.211 E25.68326
G1 X93.789 Y120.881 E25.94858
G1 X92.844 Y120.881 E25.97985
G1 X88.119 Y116.156 E26.20096
G1 X88.119 Y117.101 E26.23223
G1 X91.899 Y120.881 E26.40911
G1 X90.954 Y120.881 E26.44038
G1 X88.119 Y118.046 E26.57305
G1 X88.119 Y118.991 E26.60432
G1 X90.009 Y120.881 E26.69277
G1 X89.064 Y120.881 E26.72403
G1 X88.119 Y119.936 E26.76826
G1 X88.119 Y120.881 E26.79954
G1 X92.025 Y106.831 F7800.000
G1 X101.881 Y116.688 F1080.000 E27.26074
G1 X101.881 Y115.743 E27.29201
G1 X93.511 Y107.372 E27.68368
G1 X94.520 Y107.437 E27.71716
G1 X101.881 Y114.798 E28.06159
G1 X101.881 Y113.853 E28.09285
G1 X95.465 Y107.437 E28.39306
G1 X96.384 Y107.410 E28.42346
G1 X101.881 Y112.908 E28.68068
G1 X101.881 Y111.963 E28.71195
G1 X97.077 Y107.158 E28.93675
G1 X97.770 Y106.906 E28.96115
G1 X101.881 Y111.018 E29.15353
G1 X101.881 Y110.072 E29.18480
G1 X98.462 Y106.654 E29.34476
G1 X99.057 Y106.304 E29.36760
G1 X101.881 Y109.127 E29.49973
G1 X101.881 Y108.182 E29.53099
G1 X99.571 Y105.873 E29.63908
G1 X100.085 Y105.441 E29.66127
G1 X101.881 Y107.237 E29.74532
G1 X101.881 Y106.292 E29.77658
G1 X100.599 Y105.010 E29.83658
G1 X101.006 Y104.472 E29.85890
G1 X101.881 Y105.347 E29.89987
G1 X101.881 Y104.402 E29.93114
G1 X101.351 Y103.873 E29.95592
G1 X101.881 Y103.457 E29.97819
G1 X100.574 Y102.029 F7800.000
G1 X86.500 Y122.500
G1 X89.426 Y102.029
G1 X88.111 Y103.666
G1 X88.111 Y102.927 F360.000 E29.99731
G1 X87.664 Y100.529 F7800.000
G1 X87.998 Y99.501 F360.000 E30.04886
G1 X88.111 Y97.073 F7800.000
G1 X88.296 Y96.753 F360.000 E30.05539
G1 X88.111 Y96.568 E30.06001
G1 X88.481 Y96.433 E30.06696
G1 X88.119 Y96.543 F7800.000
G1 X88.647 Y96.131 F1080.000 E30.08898
G1 X88.119 Y95.603 E30.11353
G1 X88.990 Y95.535 E30.14229
G1 X88.119 Y94.663 E30.18284
G1 X88.119 Y93.724 E30.21375
G1 X89.392 Y94.997 E30.27299
G1 X89.903 Y94.568 E30.29493
G1 X88.119 Y92.784 E30.37794
G1 X88.119 Y91.845 E30.40885
G1 X90.414 Y94.140 E30.51564
G1 X90.925 Y93.711 E30.53758
G1 X88.119 Y90.905 E30.66813
G1 X88.119 Y89.965 E30.69904
G1 X91.510 Y93.356 E30.85679
G1 X92.199 Y93.105 E30.88091
G1 X88.119 Y89.026 E31.07071
G1 X88.119 Y88.086 E31.10162
G1 X92.887 Y92.855 E31.32347
G1 X93.576 Y92.604 E31.34758
G1 X88.119 Y87.147 E31.60148
G1 X88.119 Y86.207 E31.63239
G1 X94.475 Y92.563 E31.92811
G1 X95.415 Y92.563 E31.95902
G1 X88.119 Y85.267 E32.29844
G1 X88.119 Y84.328 E32.32935
G1 X96.379 Y92.588 E32.71363
G1 X97.856 Y93.125 E32.76535
G1 X88.119 Y83.388 E33.21836
G1 X88.119 Y82.449 E33.24927
G1 X101.881 Y96.211 E33.88954
G1 X101.881 Y95.271 E33.92045
G1 X88.119 Y81.509 E34.56072
G1 X88.119 Y80.569 E34.59163
G1 X101.881 Y94.331 E35.23190
G1 X101.881 Y93.392 E35.26281
G1 X88.119 Y79.630 E35.90307
G1 X88.119 Y78.690 E35.93398
G1 X101.881 Y92.452 E36.57425
G1 X101.881 Y91.513 E36.60516
G1 X88.119 Y77.751 E37.24543
G1 X88.119 Y76.811 E37.27634
G1 X101.881 Y90.573 E37.91661
G1 X101.881 Y89.633 E37.94752
G1 X88.119 Y75.871 E38.58779
G1 X88.119 Y74.932 E38.61870
G1 X101.881 Y88.694 E39.25896
G1 X101.881 Y87.754 E39.28988
G1 X88.119 Y73.992 E39.93014
G1 X88.119 Y73.053 E39.96105
G1 X101.881 Y86.815 E40.60132
G1 X101.881 Y85.875 E40.63223
G1 X88.119 Y72.113 E41.27250
G1 X88.119 Y71.173 E41.30341
G1 X101.881 Y84.935 E41.94368
G1 X101.881 Y83.996 E41.97459
G1 X92.810 Y74.925 E42.39661
G1 X93.983 Y75.158 E42.43595
G1 X101.881 Y83.056 E42.80341
G1 X101.881 Y82.117 E42.83432
G1 X95.104 Y75.340 E43.14961
G1 X95.888 Y75.184 E43.17589
G1 X101.881 Y81.177 E43.45472
G1 X101.881 Y80.238 E43.48563
G1 X96.672 Y75.028 E43.72800
G1 X97.449 Y74.866 E43.75414
G1 X101.881 Y79.298 E43.96032
G1 X101.881 Y78.358 E43.99123
G1 X98.013 Y74.490 E44.17121
G1 X98.576 Y74.113 E44.19350
G1 X101.881 Y77.419 E44.34727
G1 X101.881 Y76.479 E44.37818
G1 X99.139 Y73.737 E44.50575
G1 X99.634 Y73.293 E44.52764
G1 X101.881 Y75.540 E44.63217
G1 X101.881 Y74.600 E44.66308
G1 X100.011 Y72.730 E44.75009
G1 X100.387 Y72.166 E44.77238
G1 X101.881 Y73.660 E44.84189
G1 X101.881 Y72.721 E44.87280
G1 X100.763 Y71.603 E44.92480
G1 X100.985 Y70.886 E44.94951
G1 X101.881 Y71.781 E44.99117
G1 X101.881 Y70.842 E45.02208
G1 X101.141 Y70.102 E45.05650
G1 X101.881 Y69.902 E45.08171
G1 X103.500 Y68.707 F7800.000
G1 X98.301 Y72.374
G1 X95.000 Y73.741
G1 X91.699 Y72.374
G1 X90.612 Y70.747
G1 X89.075 Y71.190
G1 X88.119 Y70.234 F1080.000 E45.12619
G1 X88.672 Y69.847 E45.14839
G1 X88.842 Y70.017 E45.15629
G1 X101.889 Y97.073 F7800.000
G1 X101.889 Y96.334 F360.000 E45.17541
G1 X102.002 Y100.499 F7800.000
G1 X102.336 Y99.471 F360.000 E45.22696
G1 X101.519 Y103.567 F7800.000
G1 X101.704 Y103.247 F360.000 E45.23349
G1 X101.889 Y103.431 E45.23811
G1 X101.889 Y102.927 E45.24703
G1 X101.378 Y69.948 F7800.000
G1 X101.378 Y69.948 F360.000 E45.24704
G1 X99.388 Y70.747 F7800.000
G1 X102.293 Y67.500
G1 X98.301 Y72.374
G1 X95.000 Y73.741
G1 X91.699 Y72.374
G1 X86.500 Y68.707
G1 X88.321 Y69.977
G1 X88.321 Y69.977 F360.000 E45.24705
M106 S199
M140 S110 ; set bed temperature
G1 F1800.000 E44.24705
G92 E0
G1 Z0.750 F7800.000
G1 X93.833 Y93.383
G1 F1800.000 E1.00000
G1 X96.167 Y93.383 F1800.000 E1.06862
G1 X98.360 Y94.181 E1.13724
G1 X100.147 Y95.681 E1.20585
G1 X101.314 Y97.702 E1.27447
G1 X101.719 Y100.000 E1.34309
G1 X101.314 Y102.298 E1.41171
G1 X100.147 Y104.319 E1.48033
G1 X98.360 Y105.819 E1.54894
G1 X96.167 Y106.617 E1.61756
G1 X93.833 Y106.617 E1.68618
G1 X91.640 Y105.819 E1.75480
G1 X89.853 Y104.319 E1.82342
G1 X88.686 Y102.298 E1.89204
G1 X88.281 Y100.000 E1.96065
G1 X88.686 Y97.702 E2.02927
G1 X89.853 Y95.681 E2.09789
G1 X91.640 Y94.181 E2.16651
G1 X93.760 Y93.410 E2.23283
G1 X93.925 Y93.903 F7800.000
G1 X96.075 Y93.903 F1800.000 E2.29606
G1 X98.096 Y94.638 E2.35929
G1 X99.743 Y96.020 E2.42252
G1 X100.818 Y97.882 E2.48575
G1 X101.191 Y100.000 E2.54898
G1 X100.818 Y102.118 E2.61221
G1 X99.743 Y103.980 E2.67544
G1 X98.096 Y105.362 E2.73867
G1 X96.075 Y106.097 E2.80190
G1 X93.925 Y106.097 E2.86513
G1 X91.904 Y105.362 E2.92836
G1 X90.257 Y103.980 E2.99159
G1 X89.182 Y102.118 E3.05482
G1 X88.809 Y100.000 E3.11805
G1 X89.182 Y97.882 E3.18128
G1 X90.257 Y96.020 E3.24451
G1 X91.904 Y94.638 E3.30774
G1 X93.852 Y93.929 E3.36868
G1 X94.016 Y94.422 F7800.000
G1 X95.984 Y94.422 F1800.000 E3.42652
G1 X97.832 Y95.095 E3.48436
G1 X99.339 Y96.359 E3.54220
G1 X100.322 Y98.063 E3.60004
G1 X100.664 Y100.000 E3.65788
G1 X100.322 Y101.937 E3.71572
G1 X99.339 Y103.641 E3.77356
G1 X97.832 Y104.905 E3.83140
G1 X95.984 Y105.578 E3.88924
G1 X94.016 Y105.578 E3.94709
G1 X92.168 Y104.905 E4.00493
G1 X90.661 Y103.641 E4.06277
G1 X89.678 Y101.937 E4.12061
G1 X89.336 Y100.000 E4.17845
G1 X89.678 Y98.063 E4.23629
G1 X90.661 Y96.359 E4.29413
G1 X92.168 Y95.095 E4.35197
G1 X93.943 Y94.449 E4.40752
G1 X94.222 Y93.945 F7800.000
G1 X96.030 Y94.158
G1 X92.034 Y94.863
G1 X89.426 Y97.971
G1 X89.426 Y101.981
G1 X90.497 Y103.836
G1 X103.500 Y122.500
G1 X102.701 Y121.701
G1 X87.299 Y121.701 F1800.000 E4.86042
G1 X87.299 Y69.038 E6.40898
G1 X88.038 Y68.299 E6.43972
G1 X89.578 Y68.299 E6.48501
G1 X89.485 Y69.047 E6.50718
G1 X89.896 Y71.114 E6.56915
G1 X91.094 Y72.906 E6.63253
G1 X92.886 Y74.104 E6.69591
G1 X95.000 Y74.525 E6.75930
G1 X97.114 Y74.104 E6.82268
G1 X98.906 Y72.906 E6.88607
G1 X100.104 Y71.114 E6.94946
G1 X100.515 Y69.048 E7.01142
G1 X100.422 Y68.299 E7.03359
G1 X101.962 Y68.299 E7.07888
G1 X102.701 Y69.038 E7.10962
G1 X102.701 Y121.623 E8.65589
G1 X103.221 Y122.221 F7800.000
G1 X86.779 Y122.221 F1800.000 E9.13935
G1 X86.779 Y68.823 E10.70952
G1 X87.823 Y67.779 E10.75291
G1 X90.167 Y67.779 E10.82184
G1 X90.011 Y69.028 E10.85885
G1 X90.385 Y70.911 E10.91530
G1 X91.468 Y72.532 E10.97261
G1 X93.089 Y73.615 E11.02991
G1 X95.000 Y73.995 E11.08722
G1 X96.911 Y73.615 E11.14453
G1 X98.532 Y72.532 E11.20183
G1 X99.615 Y70.911 E11.25914
G1 X99.989 Y69.029 E11.31559
G1 X99.833 Y67.779 E11.35260
G1 X102.177 Y67.779 E11.42153
G1 X103.221 Y68.823 E11.46492
G1 X103.221 Y122.143 E13.03280
G1 X103.740 Y122.740 F7800.000
G1 X86.260 Y122.740 F1260.000 E13.54682
G1 X86.260 Y68.608 E15.13860
G1 X87.608 Y67.260 E15.19465
G1 X90.926 Y67.260 E15.29224
G1 X90.675 Y67.904 E15.31258
G1 X90.537 Y69.009 E15.34534
G1 X90.875 Y70.709 E15.39628
G1 X91.843 Y72.157 E15.44751
G1 X93.291 Y73.125 E15.49873
G1 X95.000 Y73.465 E15.54996
G1 X96.709 Y73.125 E15.60119
G1 X98.077 Y72.211 E15.64957
G1 X98.157 Y72.157 E15.65242
G1 X99.125 Y70.709 E15.70364
G1 X99.463 Y69.010 E15.75459
G1 X99.325 Y67.904 E15.78734
G1 X99.074 Y67.260 E15.80768
G1 X102.392 Y67.260 E15.90527
G1 X103.740 Y68.608 E15.96132
G1 X103.740 Y122.662 E17.55081
